img/icon-instagram.svg

<svg viewBox="0 0 51 50" fill="none" xmlns="http://www.w3.org/2000/svg">
<path fill-rule="evenodd" clip-rule="evenodd" d="M38.2073 30.4966C38.2073 34.5757 34.8756 37.9057 30.7729 37.9057H19.8302C15.7258 37.9057 12.3941 34.574 12.3941 30.5218V19.5016C12.3941 15.4242 15.7241 12.0942 19.8302 12.0942H30.7729C34.8773 12.0942 38.2073 15.4242 38.2073 19.5016V30.4966ZM25.3015 18.2895C21.5995 18.2895 18.5927 21.2912 18.5927 25C18.5927 28.707 21.6012 31.7121 25.3015 31.7121C29.0035 31.7121 32.0136 28.707 32.0136 25C32.0136 21.2912 29.0035 18.2895 25.3015 18.2895ZM25.3015 29.3872C22.8705 29.3872 20.9126 27.4225 20.9126 25C20.9126 22.5774 22.8705 20.6128 25.3015 20.6128C27.7072 20.6128 29.6904 22.5774 29.6904 25C29.6904 27.4225 27.7325 29.3872 25.3015 29.3872ZM31.1348 17.3855C31.1348 16.5218 31.82 15.835 32.6836 15.835C33.5456 15.835 34.2341 16.5218 34.2341 17.3855C34.2341 18.2474 33.5472 18.9326 32.6836 18.9326C31.82 18.9326 31.1348 18.2474 31.1348 17.3855Z" fill="#C28767"/>
<path d="M1.2998 25C1.2998 11.7427 12.0455 1 25.3049 1C38.5558 1 49.3048 11.7427 49.3048 25C49.3048 38.2557 38.5557 49 25.3049 49C12.0456 49 1.2998 38.254 1.2998 25Z" stroke="#C28767" stroke-width="2"/>
</svg>

<svg viewBox="0 0 51 50" fill="none" xmlns="http://www.w3.org/2000/svg"><path fill-rule="evenodd" clip-rule="evenodd" d="M38.207 30.497c0 4.079-3.331 7.409-7.434 7.409H19.83c-4.104 0-7.436-3.332-7.436-7.384v-11.02c0-4.078 3.33-7.408 7.436-7.408h10.943c4.104 0 7.434 3.33 7.434 7.408v10.995zM25.302 18.29a6.71 6.71 0 00-6.71 6.71 6.714 6.714 0 006.71 6.712A6.715 6.715 0 0032.014 25c0-3.709-3.01-6.71-6.713-6.71zm0 11.097A4.384 4.384 0 0120.912 25a4.384 4.384 0 014.39-4.387A4.4 4.4 0 0129.69 25a4.384 4.384 0 01-4.389 4.387zm5.833-12.002c0-.863.685-1.55 1.549-1.55.862 0 1.55.687 1.55 1.55a1.54 1.54 0 01-1.55 1.548 1.538 1.538 0 01-1.55-1.547z" fill="#C28767"/><path d="M1.3 25c0-13.257 10.746-24 24.005-24 13.25 0 24 10.743 24 24 0 13.256-10.75 24-24 24C12.045 49 1.3 38.254 1.3 25z" stroke="#C28767" stroke-width="2"/></svg>
